img/mt_logo.svg

<svg xmlns="http://www.w3.org/2000/svg" fill="none" viewBox="0 0 63 55"><path fill="url(#a)" d="M45.8348 18.8557c0 7.8504-6.364 14.2144-14.2144 14.2144-7.8503 0-14.2143-6.364-14.2143-14.2144S20.0169 4.64129 31.6204 4.64136c11.6036.00007 14.2144 6.36394 14.2144 14.21434Z"/><ellipse cx="31.6213" cy="7.54232" fill="url(#b)" rx="6.67205" ry="7.54232"/><path fill="url(#c)" d="M31.4575 45.0697c-6.7986-3.9252-9.128-12.6186-5.2028-19.4172 3.9252-6.7986 12.6185-9.128 19.4172-5.2028 6.7986 3.9252 11.0046 9.3682 5.2028 19.4172-5.8019 10.0489-12.6186 9.128-19.4172 5.2028Z"/><ellipse cx="48.3619" cy="38.4167" fill="url(#d)" rx="6.67205" ry="7.54232" transform="rotate(120 48.3619 38.4167)"/><path fill="url(#e)" d="M16.33 20.7413c6.7986-3.9252 15.492-1.5958 19.4172 5.2028 3.9252 6.7987 1.5958 15.492-5.2028 19.4172-6.7986 3.9252-13.6155 4.8462-19.4172-5.2028-5.80173-10.049-1.59582-15.492 5.2028-19.4172Z"/><ellipse cx="13.6392" cy="38.708" fill="url(#f)" rx="6.67205" ry="7.54232" transform="rotate(-120 13.6392 38.708)"/><circle cx="31.4751" cy="27.7036" r="11.1684" fill="#fff"/><path fill="url(#g)" d="M45.8348 18.8557c0 7.8504-6.364 14.2144-14.2144 14.2144-7.8503 0-14.2143-6.364-14.2143-14.2144S20.0169 4.64129 31.6204 4.64136c11.6036.00007 14.2144 6.36394 14.2144 14.21434Z"/><ellipse cx="31.6213" cy="7.54232" fill="url(#h)" rx="6.67205" ry="7.54232"/><path fill="url(#i)" d="M31.4574 45.0695c-6.7987-3.9252-9.128-12.6186-5.2028-19.4172 3.9251-6.7987 12.6185-9.128 19.4171-5.2028 6.7987 3.9251 11.0047 9.3682 5.2029 19.4171-5.8019 10.049-12.6186 9.1281-19.4172 5.2029Z"/><ellipse cx="48.3618" cy="38.4164" fill="url(#j)" rx="6.67205" ry="7.54232" transform="rotate(120 48.3618 38.4164)"/><path fill="url(#k)" d="M16.33 20.7413c6.7986-3.9252 15.492-1.5958 19.4172 5.2028 3.9252 6.7987 1.5958 15.492-5.2028 19.4172-6.7986 3.9252-13.6155 4.8462-19.4172-5.2028-5.80173-10.049-1.59582-15.492 5.2028-19.4172Z"/><ellipse cx="13.6392" cy="38.708" fill="url(#l)" rx="6.67205" ry="7.54232" transform="rotate(-120 13.6392 38.708)"/><circle cx="31.4751" cy="27.7036" r="11.1684" fill="#fff"/><path fill="#FF7F24" d="m27.186 30.6801-1.2486-5.0114v5.4299c0 .3005-.0673.5258-.202.676-.131.1503-.3064.2254-.526.2254-.2125 0-.3861-.0733-.5207-.22-.1346-.1502-.2019-.3774-.2019-.6814v-6.224c0-.3434.0885-.5741.2657-.6922.1771-.1216.4162-.1824.7173-.1824h.4888c.294 0 .5066.0268.6376.0805.1346.0536.2338.1502.2976.2897.0638.1395.1364.3667.2178.6814l1.1318 4.3086 1.1318-4.3086c.0815-.3147.1541-.5419.2178-.6814.0638-.1395.1612-.2361.2923-.2897.1346-.0537.3489-.0805.6429-.0805h.4889c.3011 0 .5402.0608.7173.1824.1771.1181.2657.3488.2657.6922v6.224c0 .3005-.0673.5258-.202.676-.131.1503-.3081.2254-.5313.2254-.209 0-.3808-.0751-.5154-.2254-.1346-.1502-.2019-.3755-.2019-.676v-5.4299l-1.2487 5.0114c-.0815.3255-.1488.5651-.2019.719-.0496.1502-.1435.2879-.2816.4131-.1382.1252-.3295.1878-.5739.1878-.1842 0-.34-.0411-.4676-.1234-.1275-.0787-.2267-.1806-.2975-.3058-.0709-.1252-.1275-.263-.1701-.4132-.0389-.1538-.0797-.313-.1222-.4775ZM38.1924 25.3146h-1.7216v5.7142c0 .3291-.0726.5742-.2179.7351-.1452.1574-.3329.2361-.5632.2361-.2338 0-.4251-.0805-.5738-.2414-.1453-.161-.2179-.4043-.2179-.7298v-5.7142h-1.7216c-.2692 0-.4693-.0591-.6004-.1771-.1311-.1216-.1966-.2808-.1966-.4775 0-.2039.0673-.3649.2019-.4829.1382-.1181.3365-.1771.5951-.1771h5.016c.2727 0 .4746.0608.6057.1824.1346.1216.2019.2808.2019.4776 0 .1967-.0673.3559-.2019.4775-.1346.118-.3365.1771-.6057.1771Z"/><defs><linearGradient id="a" x1="31.6204" x2="31.6204" y1="4.64136" y2="33.0701" gradientUnits="userSpaceOnUse"><stop stop-color="#00C11F" stop-opacity=".2"/><stop offset="1" stop-color="#00C11F"/></linearGradient><linearGradient id="b" x1="31.6213" x2="31.6213" y1="0" y2="15.0846" gradientUnits="userSpaceOnUse"><stop stop-color="#00C11F" stop-opacity=".5"/><stop offset="1" stop-color="#00C11F"/></linearGradient><linearGradient id="c" x1="50.8747" x2="26.2547" y1="39.8669" y2="25.6525" gradientUnits="userSpaceOnUse"><stop stop-color="#0056FF" stop-opacity=".2"/><stop offset="1" stop-color="#0056FF"/></linearGradient><linearGradient id="d" x1="48.3619" x2="48.3619" y1="30.8744" y2="45.959" gradientUnits="userSpaceOnUse"><stop stop-color="#0056FF" stop-opacity=".5"/><stop offset="1" stop-color="#0056FF"/></linearGradient><linearGradient id="e" x1="11.1272" x2="35.7472" y1="40.1585" y2="25.9441" gradientUnits="userSpaceOnUse"><stop stop-color="#F4E951" stop-opacity=".2"/><stop offset="1" stop-color="#F4E951"/></linearGradient><linearGradient id="f" x1="13.6392" x2="13.6392" y1="31.1657" y2="46.2503" gradientUnits="userSpaceOnUse"><stop stop-color="#F4E951" stop-opacity=".5"/><stop offset="1" stop-color="#F4E951"/></linearGradient><linearGradient id="g" x1="31.6204" x2="31.6204" y1="4.64136" y2="33.0701" gradientUnits="userSpaceOnUse"><stop stop-color="#00C11F" stop-opacity=".2"/><stop offset="1" stop-color="#00C11F"/></linearGradient><linearGradient id="h" x1="31.6213" x2="31.6213" y1="0" y2="15.0846" gradientUnits="userSpaceOnUse"><stop stop-color="#00C11F" stop-opacity=".5"/><stop offset="1" stop-color="#00C11F"/></linearGradient><linearGradient id="i" x1="50.8746" x2="26.2546" y1="39.8666" y2="25.6523" gradientUnits="userSpaceOnUse"><stop stop-color="#0056FF" stop-opacity=".2"/><stop offset="1" stop-color="#0056FF"/></linearGradient><linearGradient id="j" x1="48.3618" x2="48.3618" y1="30.8741" y2="45.9588" gradientUnits="userSpaceOnUse"><stop stop-color="#0056FF" stop-opacity=".5"/><stop offset="1" stop-color="#0056FF"/></linearGradient><linearGradient id="k" x1="11.1272" x2="35.7472" y1="40.1585" y2="25.9441" gradientUnits="userSpaceOnUse"><stop stop-color="#F4E951" stop-opacity=".2"/><stop offset="1" stop-color="#F4E951"/></linearGradient><linearGradient id="l" x1="13.6392" x2="13.6392" y1="31.1657" y2="46.2503" gradientUnits="userSpaceOnUse"><stop stop-color="#F4E951" stop-opacity=".5"/><stop offset="1" stop-color="#F4E951"/></linearGradient></defs></svg>

<svg width="63" height="55" viewBox="0 0 63 55" fill="none" xmlns="http://www.w3.org/2000/svg">
<path d="M45.8348 18.8557C45.8348 26.7061 39.4708 33.0701 31.6204 33.0701C23.7701 33.0701 17.4061 26.7061 17.4061 18.8557C17.4061 11.0053 20.0169 4.64129 31.6204 4.64136C43.224 4.64143 45.8348 11.0053 45.8348 18.8557Z" fill="url(#paint0_linear_1_646)"/>
<ellipse cx="31.6213" cy="7.54232" rx="6.67205" ry="7.54232" fill="url(#paint1_linear_1_646)"/>
<path d="M31.4575 45.0697C24.6589 41.1445 22.3295 32.4511 26.2547 25.6525C30.1799 18.8539 38.8732 16.5245 45.6719 20.4497C52.4705 24.3749 56.6765 29.8179 50.8747 39.8669C45.0728 49.9158 38.2561 48.9949 31.4575 45.0697Z" fill="url(#paint2_linear_1_646)"/>
<ellipse cx="48.3619" cy="38.4167" rx="6.67205" ry="7.54232" transform="rotate(120 48.3619 38.4167)" fill="url(#paint3_linear_1_646)"/>
<path d="M16.33 20.7413C23.1286 16.8161 31.822 19.1455 35.7472 25.9441C39.6724 32.7428 37.343 41.4361 30.5444 45.3613C23.7458 49.2865 16.9289 50.2075 11.1272 40.1585C5.32547 30.1095 9.53138 24.6665 16.33 20.7413Z" fill="url(#paint4_linear_1_646)"/>
<ellipse cx="13.6392" cy="38.708" rx="6.67205" ry="7.54232" transform="rotate(-120 13.6392 38.708)" fill="url(#paint5_linear_1_646)"/>
<circle cx="31.4751" cy="27.7036" r="11.1684" fill="white"/>
<path d="M45.8348 18.8557C45.8348 26.7061 39.4708 33.0701 31.6204 33.0701C23.7701 33.0701 17.4061 26.7061 17.4061 18.8557C17.4061 11.0053 20.0169 4.64129 31.6204 4.64136C43.224 4.64143 45.8348 11.0053 45.8348 18.8557Z" fill="url(#paint6_linear_1_646)"/>
<ellipse cx="31.6213" cy="7.54232" rx="6.67205" ry="7.54232" fill="url(#paint7_linear_1_646)"/>
<path d="M31.4574 45.0695C24.6587 41.1443 22.3294 32.4509 26.2546 25.6523C30.1797 18.8536 38.8731 16.5243 45.6717 20.4495C52.4704 24.3746 56.6764 29.8177 50.8746 39.8666C45.0727 49.9156 38.256 48.9947 31.4574 45.0695Z" fill="url(#paint8_linear_1_646)"/>
<ellipse cx="48.3618" cy="38.4164" rx="6.67205" ry="7.54232" transform="rotate(120 48.3618 38.4164)" fill="url(#paint9_linear_1_646)"/>
<path d="M16.33 20.7413C23.1286 16.8161 31.822 19.1455 35.7472 25.9441C39.6724 32.7428 37.343 41.4361 30.5444 45.3613C23.7458 49.2865 16.9289 50.2075 11.1272 40.1585C5.32547 30.1095 9.53138 24.6665 16.33 20.7413Z" fill="url(#paint10_linear_1_646)"/>
<ellipse cx="13.6392" cy="38.708" rx="6.67205" ry="7.54232" transform="rotate(-120 13.6392 38.708)" fill="url(#paint11_linear_1_646)"/>
<circle cx="31.4751" cy="27.7036" r="11.1684" fill="white"/>
<path d="M27.186 30.6801L25.9374 25.6687V31.0986C25.9374 31.3991 25.8701 31.6244 25.7354 31.7746C25.6044 31.9249 25.429 32 25.2094 32C24.9969 32 24.8233 31.9267 24.6887 31.78C24.5541 31.6298 24.4868 31.4026 24.4868 31.0986V24.8746C24.4868 24.5312 24.5753 24.3005 24.7525 24.1824C24.9296 24.0608 25.1687 24 25.4698 24H25.9586C26.2526 24 26.4652 24.0268 26.5962 24.0805C26.7308 24.1341 26.83 24.2307 26.8938 24.3702C26.9576 24.5097 27.0302 24.7369 27.1116 25.0516L28.2434 29.3602L29.3752 25.0516C29.4567 24.7369 29.5293 24.5097 29.593 24.3702C29.6568 24.2307 29.7542 24.1341 29.8853 24.0805C30.0199 24.0268 30.2342 24 30.5282 24H31.0171C31.3182 24 31.5573 24.0608 31.7344 24.1824C31.9115 24.3005 32.0001 24.5312 32.0001 24.8746V31.0986C32.0001 31.3991 31.9328 31.6244 31.7981 31.7746C31.6671 31.9249 31.49 32 31.2668 32C31.0578 32 30.886 31.9249 30.7514 31.7746C30.6168 31.6244 30.5495 31.3991 30.5495 31.0986V25.6687L29.3008 30.6801C29.2193 31.0056 29.152 31.2452 29.0989 31.3991C29.0493 31.5493 28.9554 31.687 28.8173 31.8122C28.6791 31.9374 28.4878 32 28.2434 32C28.0592 32 27.9034 31.9589 27.7758 31.8766C27.6483 31.7979 27.5491 31.696 27.4783 31.5708C27.4074 31.4456 27.3508 31.3078 27.3082 31.1576C27.2693 31.0038 27.2285 30.8446 27.186 30.6801Z" fill="#FF7F24"/>
<path d="M38.1924 25.3146H36.4708V31.0288C36.4708 31.3579 36.3982 31.603 36.2529 31.7639C36.1077 31.9213 35.92 32 35.6897 32C35.4559 32 35.2646 31.9195 35.1159 31.7586C34.9706 31.5976 34.898 31.3543 34.898 31.0288V25.3146H33.1764C32.9072 25.3146 32.7071 25.2555 32.576 25.1375C32.4449 25.0159 32.3794 24.8567 32.3794 24.66C32.3794 24.4561 32.4467 24.2951 32.5813 24.1771C32.7195 24.059 32.9178 24 33.1764 24H38.1924C38.4651 24 38.667 24.0608 38.7981 24.1824C38.9327 24.304 39 24.4632 39 24.66C39 24.8567 38.9327 25.0159 38.7981 25.1375C38.6635 25.2555 38.4616 25.3146 38.1924 25.3146Z" fill="#FF7F24"/>
<defs>
<linearGradient id="paint0_linear_1_646" x1="31.6204" y1="4.64136" x2="31.6204" y2="33.0701" gradientUnits="userSpaceOnUse">
<stop stop-color="#00C11F" stop-opacity="0.2"/>
<stop offset="1" stop-color="#00C11F"/>
</linearGradient>
<linearGradient id="paint1_linear_1_646" x1="31.6213" y1="0" x2="31.6213" y2="15.0846" gradientUnits="userSpaceOnUse">
<stop stop-color="#00C11F" stop-opacity="0.5"/>
<stop offset="1" stop-color="#00C11F"/>
</linearGradient>
<linearGradient id="paint2_linear_1_646" x1="50.8747" y1="39.8669" x2="26.2547" y2="25.6525" gradientUnits="userSpaceOnUse">
<stop stop-color="#0056FF" stop-opacity="0.2"/>
<stop offset="1" stop-color="#0056FF"/>
</linearGradient>
<linearGradient id="paint3_linear_1_646" x1="48.3619" y1="30.8744" x2="48.3619" y2="45.959" gradientUnits="userSpaceOnUse">
<stop stop-color="#0056FF" stop-opacity="0.5"/>
<stop offset="1" stop-color="#0056FF"/>
</linearGradient>
<linearGradient id="paint4_linear_1_646" x1="11.1272" y1="40.1585" x2="35.7472" y2="25.9441" gradientUnits="userSpaceOnUse">
<stop stop-color="#F4E951" stop-opacity="0.2"/>
<stop offset="1" stop-color="#F4E951"/>
</linearGradient>
<linearGradient id="paint5_linear_1_646" x1="13.6392" y1="31.1657" x2="13.6392" y2="46.2503" gradientUnits="userSpaceOnUse">
<stop stop-color="#F4E951" stop-opacity="0.5"/>
<stop offset="1" stop-color="#F4E951"/>
</linearGradient>
<linearGradient id="paint6_linear_1_646" x1="31.6204" y1="4.64136" x2="31.6204" y2="33.0701" gradientUnits="userSpaceOnUse">
<stop stop-color="#00C11F" stop-opacity="0.2"/>
<stop offset="1" stop-color="#00C11F"/>
</linearGradient>
<linearGradient id="paint7_linear_1_646" x1="31.6213" y1="0" x2="31.6213" y2="15.0846" gradientUnits="userSpaceOnUse">
<stop stop-color="#00C11F" stop-opacity="0.5"/>
<stop offset="1" stop-color="#00C11F"/>
</linearGradient>
<linearGradient id="paint8_linear_1_646" x1="50.8746" y1="39.8666" x2="26.2546" y2="25.6523" gradientUnits="userSpaceOnUse">
<stop stop-color="#0056FF" stop-opacity="0.2"/>
<stop offset="1" stop-color="#0056FF"/>
</linearGradient>
<linearGradient id="paint9_linear_1_646" x1="48.3618" y1="30.8741" x2="48.3618" y2="45.9588" gradientUnits="userSpaceOnUse">
<stop stop-color="#0056FF" stop-opacity="0.5"/>
<stop offset="1" stop-color="#0056FF"/>
</linearGradient>
<linearGradient id="paint10_linear_1_646" x1="11.1272" y1="40.1585" x2="35.7472" y2="25.9441" gradientUnits="userSpaceOnUse">
<stop stop-color="#F4E951" stop-opacity="0.2"/>
<stop offset="1" stop-color="#F4E951"/>
</linearGradient>
<linearGradient id="paint11_linear_1_646" x1="13.6392" y1="31.1657" x2="13.6392" y2="46.2503" gradientUnits="userSpaceOnUse">
<stop stop-color="#F4E951" stop-opacity="0.5"/>
<stop offset="1" stop-color="#F4E951"/>
</linearGradient>
</defs>
</svg>
